svg/pregnant_positive.svg

<svg width="48" height="48" viewBox="0 0 48 48" fill="none" xmlns="http://www.w3.org/2000/svg">
<path fill-rule="evenodd" clip-rule="evenodd" d="M23.9996 4.05469C21.5777 4.05469 19.6147 6.01776 19.6147 8.43943C19.6147 10.8609 21.5777 12.8239 23.9996 12.8239C26.4216 12.8239 28.3866 10.8609 28.3866 8.43943C28.3866 6.01776 26.4216 4.05469 23.9996 4.05469ZM23.5636 13.9039L19.5717 13.9059V13.9179C18.8547 13.9329 18.1687 14.3279 17.8317 15.0199L12.9838 24.9487C12.5048 25.9317 12.9118 27.1077 13.8948 27.5877C14.8768 28.0677 16.0537 27.6647 16.5327 26.6817L19.5717 20.4528C19.6457 24.6947 17.1057 26.4657 16.7947 33.0616H19.5717V41.9725C19.5717 43.0655 20.4507 43.9465 21.5447 43.9465C22.6387 43.9465 23.5197 43.0655 23.5197 41.9725V33.0616H24.4706V41.9725C24.4706 43.0655 25.3516 43.9465 26.4446 43.9465C27.5386 43.9465 28.4196 43.0655 28.4196 41.9725V33.0616H31.2026C30.9266 26.4857 28.4196 25.1537 28.4196 20.4388L31.4666 26.6817C31.9455 27.6647 33.1235 28.0677 34.1065 27.5877C35.0895 27.1077 35.4925 25.9317 35.0135 24.9487L30.1676 15.0179C29.8286 14.3229 29.1406 13.9229 28.4196 13.9139V13.9059H24.4256L23.5636 13.9039ZM23.9996 22.3748C26.7576 22.3748 28.9936 24.6107 28.9936 27.3687C28.9936 30.1267 26.7576 32.3626 23.9996 32.3626C21.2417 32.3626 19.0057 30.1267 19.0057 27.3687C19.0057 24.6107 21.2417 22.3748 23.9996 22.3748ZM23.9996 23.0608C22.857 23.0609 21.7613 23.5147 20.9532 24.3226C20.1452 25.1304 19.6911 26.2261 19.6907 27.3687C19.6908 28.5115 20.1448 29.6074 20.9529 30.4155C21.7609 31.2235 22.8569 31.6775 23.9996 31.6776C25.1424 31.6775 26.2384 31.2235 27.0464 30.4155C27.8545 29.6074 28.3085 28.5115 28.3086 27.3687C28.3082 26.2261 27.8541 25.1304 27.0461 24.3226C26.238 23.5147 25.1422 23.0609 23.9996 23.0608ZM23.6816 23.3157C23.7606 23.3447 23.8166 23.4287 23.7556 23.5287C23.6436 23.7267 23.4697 23.8867 23.4057 24.1427C23.3307 24.4357 23.7706 24.4027 24.2166 24.4817C25.6366 24.7397 24.9746 25.4727 24.6656 25.4837C24.0156 25.5897 23.1947 25.4007 23.0797 26.7697C23.0857 27.1267 23.2247 27.4497 23.3047 27.7887C23.3467 28.1107 23.2997 28.4287 23.1127 28.7397C23.2057 28.7267 23.2907 28.7237 23.4077 28.6927C23.7676 28.5777 23.9096 28.4817 23.8046 28.2787C23.4277 27.8377 23.7026 27.3147 23.9056 27.0917C24.2616 26.7227 24.4446 26.5107 24.7946 26.3957C25.2086 26.2747 25.5656 26.6247 25.3546 26.9237C24.9496 27.4047 24.4116 27.6377 24.7436 28.0057C24.8806 28.0967 24.9276 28.1267 25.0306 28.2357C25.2946 28.6397 25.3116 28.7687 25.4336 29.1247C25.4356 29.3817 25.5706 29.6687 24.8416 30.0717C24.0796 30.3097 23.5156 30.7467 22.5387 30.7697C21.5727 30.6847 20.8357 29.9537 21.0547 29.2847L21.3217 28.5077C21.5197 27.9727 21.3137 27.8057 20.9337 27.7987L20.3847 27.7827C19.9367 27.7737 19.7697 27.0017 20.2907 26.8067C20.7847 26.6427 21.3317 26.7587 21.9487 26.8867C22.2567 26.9407 22.5597 27.1527 22.6837 27.5977C22.8097 28.0557 22.7457 28.3237 22.7297 28.6407C22.7467 28.7147 22.8127 28.7457 22.9017 28.7577C23.0777 28.3907 23.1657 28.0517 23.1127 27.7577C22.9537 27.3087 22.8617 26.9567 22.8787 26.7577C23.0117 25.3987 23.6906 25.3817 24.3516 25.3197C25.1466 25.2487 24.8676 24.7647 24.0936 24.7377C23.8256 24.7387 22.9657 24.6967 23.0717 24.1947C23.1557 23.8477 23.3457 23.6747 23.4567 23.4297C23.4977 23.3127 23.6016 23.2877 23.6816 23.3157ZM26.7396 26.7767C27.0546 26.7767 27.3686 26.8967 27.6086 27.1367C28.0896 27.6167 28.0906 28.3957 27.6106 28.8767C27.1306 29.3577 26.3516 29.3587 25.8706 28.8787C25.3906 28.3987 25.3906 27.6187 25.8706 27.1387C26.1106 26.8977 26.4246 26.7767 26.7396 26.7767Z" fill="#333333"/>
</svg>

<?xml version="1.0" encoding="UTF-8" standalone="no"?>
<!-- Created with Inkscape (http://www.inkscape.org/) -->
<svg id="svg8" xmlns:rdf="http://www.w3.org/1999/02/22-rdf-syntax-ns#" xmlns="http://www.w3.org/2000/svg" xmlns:osb="http://www.openswatchbook.org/uri/2009/osb" height="48" width="48" version="1.1" xmlns:cc="http://creativecommons.org/ns#" viewBox="0 0 12.7 12.7" xmlns:dc="http://purl.org/dc/elements/1.1/">
 <title id="title4753">UIO-icon</title>
 <metadata id="metadata5">
  <rdf:RDF>
   <cc:Work rdf:about="">
    <dc:format>image/svg+xml</dc:format>
    <dc:type rdf:resource="http://purl.org/dc/dcmitype/StillImage"/>
    <dc:title>UIO-icon</dc:title>
    <dc:creator>
     <cc:Agent>
      <dc:title>Joaquín Urbano</dc:title>
     </cc:Agent>
    </dc:creator>
    <dc:rights>
     <cc:Agent>
      <dc:title>GPL</dc:title>
     </cc:Agent>
    </dc:rights>
   </cc:Work>
  </rdf:RDF>
 </metadata>
 <g id="layer1" transform="translate(0,-284.3)">
  <path id="path4800" d="m24 4.0547c-2.422 0-4.385 1.9631-4.385 4.3848 0 2.4215 1.963 4.3845 4.385 4.3845s4.387-1.963 4.387-4.3845c0-2.4217-1.965-4.3848-4.387-4.3848zm-0.436 9.8493l-3.992 0.002v0.012c-0.717 0.015-1.403 0.41-1.74 1.102l-4.848 9.929c-0.479 0.983-0.072 2.159 0.911 2.639 0.982 0.48 2.159 0.077 2.638-0.906l3.039-6.229c0.074 4.242-2.466 6.013-2.777 12.609h2.777v8.911c0 1.093 0.879 1.974 1.973 1.974s1.975-0.881 1.975-1.974v-8.911h0.951v8.911c0 1.093 0.881 1.974 1.974 1.974 1.094 0 1.975-0.881 1.975-1.974v-8.911h2.783c-0.276-6.576-2.783-7.908-2.783-12.623l3.047 6.243c0.479 0.983 1.657 1.386 2.64 0.906s1.386-1.656 0.907-2.639l-4.846-9.931c-0.339-0.695-1.027-1.095-1.748-1.104v-0.008h-3.994l-0.862-0.002zm0.436 8.471c2.758 0 4.994 2.236 4.994 4.994s-2.236 4.994-4.994 4.994-4.994-2.236-4.994-4.994 2.236-4.994 4.994-4.994zm0 0.686a4.3094 4.3094 0 0 0 -4.309 4.308 4.3094 4.3094 0 0 0 4.309 4.309 4.3094 4.3094 0 0 0 4.309 -4.309 4.3094 4.3094 0 0 0 -4.309 -4.308zm-0.318 0.255c0.079 0.029 0.135 0.113 0.074 0.213-0.112 0.198-0.286 0.358-0.35 0.614-0.075 0.293 0.365 0.26 0.811 0.339 1.42 0.258 0.758 0.991 0.449 1.002-0.65 0.106-1.471-0.083-1.586 1.286 0.006 0.357 0.145 0.68 0.225 1.019 0.042 0.322-0.005 0.64-0.192 0.951 0.093-0.013 0.178-0.016 0.295-0.047 0.36-0.115 0.502-0.211 0.397-0.414-0.377-0.441-0.102-0.964 0.101-1.187 0.356-0.369 0.539-0.581 0.889-0.696 0.414-0.121 0.771 0.229 0.56 0.528-0.405 0.481-0.943 0.714-0.611 1.082 0.137 0.091 0.184 0.121 0.287 0.23 0.264 0.404 0.281 0.533 0.403 0.889 0.002 0.257 0.137 0.544-0.592 0.947-0.762 0.238-1.326 0.675-2.303 0.698-0.966-0.085-1.703-0.816-1.484-1.485l0.267-0.777c0.198-0.535-0.008-0.702-0.388-0.709l-0.549-0.016c-0.448-0.009-0.615-0.781-0.094-0.976 0.494-0.164 1.041-0.048 1.658 0.08 0.308 0.054 0.611 0.266 0.735 0.711 0.126 0.458 0.062 0.726 0.046 1.043 0.017 0.074 0.083 0.105 0.172 0.117 0.176-0.367 0.264-0.706 0.211-1-0.159-0.449-0.251-0.801-0.234-1 0.133-1.359 0.812-1.376 1.473-1.438 0.795-0.071 0.516-0.555-0.258-0.582-0.268 0.001-1.128-0.041-1.022-0.543 0.084-0.347 0.274-0.52 0.385-0.765 0.041-0.117 0.145-0.142 0.225-0.114zm3.058 3.461c0.315 0 0.629 0.12 0.869 0.36 0.481 0.48 0.482 1.259 0.002 1.74s-1.259 0.482-1.74 0.002c-0.48-0.48-0.48-1.26 0-1.74 0.24-0.241 0.554-0.362 0.869-0.362z" fill-rule="evenodd" transform="matrix(.26458 0 0 .26458 0 284.3)" fill="#333"/>
 </g>
</svg>
